X: 305808
M: 2/4
L: 1/16
K: C
c2c2 cBcA | G2G2 GFDE | CCEG cege | d2d2d2 de |\
fgef decd | BdcA GGAB | c2de gfde | c2c2c2 |]
ef |\
gc'ge cece | fgfd BdGB | cege c'gfe | (6:4:6(dedcBA) G2 de |\
fgef dagf | efde cgfe | decd BGAB | c2c2"^D.C."c2 |]
K: Cm
gg |\
c'ggg egdg | egdg cg=Bg | defe d2gg | cdfe d2gg |\
fafa fa[fd]a | gfed ccde | dagf edc=B | ccGE "^D.C."C2 |]


